X:12
T: Die wiedergefundene Schwester (Suedeli - Ballade)
N: Q2072K
O: Mitteleuropa, Deutschland (DDR) , Lausitz, Wenden
N: Wendische Fassung der Ballade.
R: Ballade, Entfuehrung, Adelige als Dienstmagd, Rueckkehr
M: 3/4
L: 1/8
K: G
 | G2d2d2 | d4g2 | d2c2dc | B4
d2 | B2A2G2 | B2A2A2 | F2D2A2 | G4
G2 | B2A2G2 | B2A2A2 | F2D2A2 | G4z2

